assets/img/partial-logo.svg

<svg width="161" height="277" viewBox="0 0 161 277" fill="none" xmlns="http://www.w3.org/2000/svg">
  <g clip-path="url(#clip0)">
    <path d="M161 234.961H-131.979V253.216H161V234.961Z" fill="#4E352E"/>
    <path d="M-57.2513 276.896C-79.1077 276.896 -79.2118 212.22 -57.2513 212.22C-35.2909 212.22 -35.2909 276.896 -57.2513 276.896ZM97.3043 218.479C96.6193 217.529 95.7301 216.744 94.7024 216.184C96.4717 223.591 98.241 241.324 91.1637 241.324C90.9556 235.691 91.0596 219.314 86.0639 214.619C82.9416 215.558 77.2173 218.375 74.095 226.407C73.1111 229.607 72.4144 232.889 72.0134 236.213V236.526C69.8278 254.886 75.1357 277.001 87.9373 277.001C101.259 277.001 106.463 252.904 103.549 234.231C102.914 234.781 102.099 235.078 101.259 235.065C101.467 229.745 99.9063 222.235 97.3043 218.479ZM139.456 212.22C117.495 212.22 117.6 276.896 139.456 276.896C161.312 276.896 161.312 212.22 139.456 212.22ZM-95.3438 212.22C-117.304 212.22 -117.2 276.896 -95.3438 276.896C-73.4875 276.896 -73.3834 212.22 -95.3438 212.22Z" fill="#E45325"/>
    <path d="M-87.3299 262.501C-84.8981 262.505 -82.5414 261.657 -80.6689 260.101C-83.0627 269.699 -87.9544 276.896 -95.2398 276.896C-114.598 276.896 -116.888 226.199 -101.901 214.62C-106.792 233.814 -102.005 262.501 -87.3299 262.501ZM147.366 262.501C132.795 262.501 127.903 233.709 132.795 214.62C117.808 226.199 120.097 276.896 139.456 276.896C146.741 276.896 151.633 269.699 154.027 260.101C152.154 261.657 149.797 262.505 147.366 262.501ZM74.074 226.23C67.9334 245.216 72.5128 276.928 87.8123 276.928C95.0977 276.928 99.9894 269.73 102.383 260.133C100.484 261.641 98.1445 262.483 95.7222 262.532C81.7758 262.532 76.78 236.453 80.5268 217.467C77.6398 219.764 75.413 222.788 74.074 226.23ZM-63.9332 214.651C-78.9204 226.23 -76.6307 276.928 -57.2722 276.928C-49.9868 276.928 -45.0951 269.73 -42.7013 260.133C-44.6004 261.641 -46.94 262.483 -49.3623 262.532C-63.9124 262.501 -68.8041 233.814 -63.9124 214.62L-63.9332 214.651Z" fill="#BE3A26"/>
    <path d="M-5.02493 230.266C-6.16979 229.953 -20.0121 195.946 -20.0121 195.946C-20.0121 195.946 -10.3329 189.061 -9.81251 186.975C-12.6226 184.158 -15.3286 178.525 -15.3286 178.525C-15.0011 180.86 -14.4789 183.163 -13.7675 185.41C-13.7675 185.41 -17.9306 183.533 -19.2836 180.194L-28.3384 193.13C-28.3384 193.13 -13.0389 228.389 -13.143 230.266C-18.8673 229.014 -24.1753 235.065 -24.1753 235.065C-13.0389 236.212 -16.6817 255.406 -24.1753 253.32C-18.8673 265.525 -12.5185 258.327 -11.9981 237.568C-9.60435 239.237 -1.17405 251.129 -10.9574 253.32C-1.90259 269.906 7.9848 248.73 -5.44124 236.629C1.53197 237.151 12.3561 245.601 4.02984 253.32C7.0481 261.248 12.9805 257.075 13.9172 251.129C15.2911 240.072 4.98736 232.77 -5.02493 230.266Z" fill="#2D1E1C"/>
    <path d="M95.2228 210.447C92.4127 206.378 88.2496 206.378 83.8783 208.986C74.3031 209.299 68.3707 208.047 38.8126 211.907C38.8126 211.907 38.6044 209.612 38.3963 206.378C35.8984 206.691 33.4005 206.796 30.7986 206.9L33.5046 220.67C41.4145 220.357 65.2484 214.724 76.6969 214.724C72.5338 219.209 66.1851 231.31 72.1175 236.526C73.0542 220.67 82.0049 215.892 86.0639 214.619C90.0605 219.46 90.9556 235.796 91.1638 241.324C98.2411 241.324 96.6799 223.695 94.9106 216.288C95.8119 216.896 96.6185 217.635 97.3044 218.479C99.9063 222.13 100.822 229.808 101.259 235.065C109.377 235.065 104.257 210.655 95.2228 210.447Z" fill="#2D1E1C"/>
    <path d="M79.6111 178.421C55.0487 190.939 23.7213 191.252 39.7493 160.27C38.5007 161.601 37.3197 162.993 36.2106 164.443C39.1248 154.116 47.9714 144.831 56.1936 138.468C52.1504 140.523 48.2553 142.858 44.5368 145.457C57.9629 126.576 71.1808 132.418 77.4254 105.4C72.5338 122.925 52.759 134.608 35.1698 139.303C18.4133 148.9 -27.6932 137.947 -42.5763 133.252C-32.1685 132.418 -28.3177 131.792 -28.3177 131.792C-39.1418 128.454 -51.1107 122.195 -62.9756 117.918C-62.4552 126.472 -60.4777 135.339 -57.1472 142.224C-58.9166 132.626 -57.1472 127.828 -57.1472 127.828C-57.1472 127.828 -53.7127 148.17 -45.6987 159.957C-48.821 147.335 -47.468 143.058 -47.468 143.058C-47.468 143.058 -41.0152 167.364 -31.5441 175.709C-32.7948 171.233 -33.1485 166.553 -32.5849 161.939C-32.5849 161.939 -30.8155 166.738 -19.6792 175.709C-22.4893 168.928 -15.8283 171.328 -10.6244 178.526C-5.42052 185.723 -2.29818 186.349 11.9605 183.533C1.5527 189.479 18.2051 193.651 28.9252 192.295C21.2234 197.198 45.5776 195.946 59.42 192.608C52.1345 198.241 77.4254 195.842 81.5886 193.025C82.8375 192.191 85.6476 192.191 88.7699 192.817C90.0189 191.982 91.1637 191.148 92.3086 190.313C84.4819 194.277 98.0121 168.928 79.6111 178.421Z" fill="#F2F2F2"/>
    <path d="M54.2162 202.623C34.7537 210.133 5.19554 207.004 -19.4709 197.094C-19.6369 196.722 -19.776 196.338 -19.8872 195.946C-19.8872 195.946 -10.208 189.062 -9.6876 186.975C-12.4977 184.159 -15.2037 178.526 -15.2037 178.526C-14.8761 180.86 -14.3539 183.163 -13.6426 185.41C-13.6426 185.41 -17.8057 183.533 -19.1587 180.195L-28.2135 193.13C-28.2135 193.158 -28.2025 193.184 -28.183 193.204C-28.1635 193.223 -28.137 193.234 -28.1094 193.234C-37.7886 188.436 -46.323 182.594 -52.6718 176.022C-51.2147 179.986 -49.9657 183.846 -49.3413 185.723C-53.5044 180.508 -70.2609 163.191 -76.6097 138.677C-76.6099 142.545 -76.4014 146.41 -75.9852 150.256C-79.8804 140.699 -82.3019 130.604 -83.1666 120.317C-83.6081 123.428 -83.8514 126.564 -83.8951 129.706C-86.4971 122.299 -87.6419 112.493 -87.8501 105.191V98.3065C-88.5898 99.8584 -89.2159 101.462 -89.7235 103.105C-89.8275 103.522 -89.9316 103.835 -90.0357 104.253V104.357C-90.1557 104.764 -90.2256 105.184 -90.2439 105.609C-91.3213 97.6677 -91.1457 89.6064 -89.7235 81.7202C-67.659 93.8209 -42.8884 109.051 -27.589 119.9C-24.883 121.778 -51.631 112.702 -48.9249 114.58C-26.236 129.914 -2.50623 142.432 20.3909 141.702C25.4633 141.495 30.4937 140.69 35.3781 139.303C18.6216 148.9 -27.4849 137.947 -42.368 133.252C-31.9603 132.418 -28.1094 131.792 -28.1094 131.792C-38.9335 128.454 -50.9024 122.195 -62.7673 117.918C-62.2469 126.472 -60.2694 135.339 -56.9389 142.224C-58.7083 132.626 -56.9389 127.828 -56.9389 127.828C-56.9389 127.828 -53.5044 148.17 -45.4904 159.957C-48.6127 147.335 -47.2597 143.058 -47.2597 143.058C-47.2597 143.058 -40.8069 167.364 -31.3358 175.709C-32.5865 171.233 -32.9402 166.553 -32.3766 161.939C-32.3766 161.939 -30.6072 166.738 -19.4709 175.709C-22.281 168.929 -15.62 171.328 -10.4161 178.526C-5.21225 185.723 -2.0899 186.349 12.1688 183.533C1.76097 189.479 18.4134 193.651 29.1335 192.295C21.4317 197.198 45.7859 195.946 59.6283 192.608C52.3428 198.241 77.6337 195.842 81.7969 193.026C83.0458 192.191 85.8559 192.191 88.9782 192.817C78.6745 199.702 65.6648 204.813 48.9083 207.213C48.7001 207.108 52.3428 205.439 54.2162 202.623ZM3.0099 163.713C8.2138 165.903 14.9789 162.982 20.495 155.576C16.8315 158.706 9.546 162.878 3.0099 163.713ZM3.0099 180.403C6.86079 181.655 11.9606 179.986 16.0196 175.709C12.0575 178.167 7.62585 179.766 3.0099 180.403ZM-38.5172 139.647C-39.7661 145.384 -37.2682 152.582 -31.5439 158.215C-35.0094 152.519 -37.375 146.22 -38.5172 139.647Z" fill="#B3B3B3"/>
    <path d="M154.547 135.339C166.724 96.9504 152.882 33.0046 33.0883 36.5514C-24.6749 9.42916 -87.4339 40.3067 -127.92 63.4649C-107.729 70.0368 -53.8167 101.436 -27.7973 119.796C-25.0912 121.673 -51.8392 112.598 -49.1332 114.476C-26.4442 129.81 -2.71449 142.328 20.1826 141.598C40.5819 140.972 74.9276 126.576 78.2581 100.914C88.5618 102.896 92.4127 123.134 91.3719 124.699C92.7249 123.238 94.2861 107.799 101.572 104.044C101.572 104.044 98.5533 112.702 99.3859 114.997C103.237 102.792 133.003 100.914 128.215 131.062C129.568 129.706 132.066 120.734 132.066 120.734C128.528 143.058 137.166 152.029 145.596 153.49C149.551 152.76 157.253 138.573 158.19 129.706C157.22 131.731 155.996 133.625 154.547 135.339Z" fill="#4E352E"/>
    <path d="M-84.3115 47.8489C-73.3833 41.0684 -35.1868 24.3778 4.36283 32.2015C-34.5623 30.1152 -84.3115 47.8489 -84.3115 47.8489ZM33.0883 36.5828C30.1462 35.1539 27.1227 33.8999 24.0335 32.8274C36.2244 40.8355 47.2264 50.5282 56.714 61.6187C53.3835 55.777 49.4286 45.3453 42.3513 36.4785C39.333 36.4472 36.2107 36.4472 33.0883 36.5515V36.5828Z" fill="#2D1E1C"/>
    <path d="M43.184 126.263C-1.36135 132.314 -20.7198 119.483 -18.9505 117.605C1.03244 128.245 37.2515 125.846 43.184 126.263ZM-30.7113 96.0117C-32.4806 97.785 -13.1222 110.72 31.4232 104.67C25.4907 104.253 -10.6243 106.652 -30.7113 96.0117ZM66.0811 105.609C68.1627 106.443 77.8419 96.3246 65.1444 74.2096C65.5607 77.2347 73.3665 95.1771 66.0811 105.609ZM145.909 87.9793C125.301 55.9543 92.3087 53.1377 84.9192 55.224C125.072 60.6485 141.329 85.4027 145.888 87.9793H145.909Z" fill="#6D4D42"/>
    <path d="M142.578 159.123C144.556 156.932 149.447 155.055 151.425 154.116C150.28 154.011 146.95 154.95 143.723 155.993C144.348 155.159 144.972 154.429 145.597 153.49C137.062 152.029 128.528 143.058 132.066 120.735C132.066 120.735 129.464 129.706 128.215 131.062C133.003 100.81 103.237 102.792 99.3859 114.997C98.5533 112.702 101.572 104.044 101.572 104.044C94.2861 107.799 92.7249 123.238 91.3719 124.699C92.4127 123.134 88.4578 102.897 78.2581 100.915C78.0458 102.395 77.7328 103.858 77.3214 105.296C71.0767 132.314 57.8589 126.472 44.4328 145.353C48.1513 142.754 52.0463 140.419 56.0895 138.364C47.7633 144.727 39.0208 154.011 36.1066 164.339C37.2157 162.889 38.3967 161.497 39.6452 160.166C23.7213 191.148 54.9447 190.835 79.5071 178.317C98.0329 168.824 84.2946 194.382 92.2046 190.105C103.549 184.055 108.649 174.353 111.667 168.929C109.586 173.414 108.024 176.648 108.024 176.648C115.31 171.119 118.016 161.522 123.844 160.375C122.075 156.202 121.242 152.968 122.491 152.134C124.365 150.986 130.297 156.724 132.795 158.08C133.419 157.663 133.315 156.306 133.315 156.306C134.552 158.137 136.145 159.698 137.999 160.896C138.519 159.645 139.248 160.375 139.352 160.375C141.547 160.425 143.68 161.114 145.492 162.357C144.689 161.138 143.707 160.047 142.578 159.123Z" fill="#E45325"/>
    <path d="M123.948 115.519C116.246 108.217 107.192 111.137 103.237 116.145C106.338 106.861 119.785 105.609 123.948 115.519ZM106.775 168.094C105.526 171.641 96.2635 182.698 90.0189 183.324C92.8082 184.889 106.255 177.483 106.775 168.094ZM67.6421 148.17C65.1443 150.673 59.6281 154.742 54.4243 155.368C55.9854 156.338 63.1668 154.533 67.6421 148.17ZM47.1388 167.364C45.7858 169.137 42.6635 171.745 39.0208 171.432C40.2697 172.58 45.0573 172.267 47.1388 167.364ZM72.3256 163.713C70.9726 165.486 67.8503 168.094 64.2076 167.781C65.4565 168.929 70.2441 168.616 72.3256 163.713ZM99.1777 162.357C97.8247 164.13 94.7024 166.738 91.0597 166.425C92.3086 167.573 97.0962 167.26 99.1777 162.357ZM74.9276 170.911C73.1583 174.562 57.0262 184.576 49.8448 182.072C52.759 185.411 73.2623 182.072 74.9276 170.942V170.911Z" fill="#BE3A26"/>
    <path d="M123.116 132.939C117.287 136.486 110.314 136.799 105.214 132.626C106.255 135.965 116.455 140.137 123.116 132.939Z" fill="#ED6D23"/>
    <path d="M138.103 161.001C136.203 159.862 134.598 158.289 133.419 156.411C133.419 156.411 133.523 157.767 132.899 158.184C130.401 156.828 124.469 151.091 122.595 152.238C121.346 153.073 122.179 156.306 123.948 160.479C126.446 166.529 130.817 174.666 133.211 180.195C134.148 182.385 139.976 190.001 139.456 160.479C139.352 160.375 138.602 159.645 138.103 161.001Z" fill="black"/>
    <path d="M113.645 134.817C119.967 134.817 125.093 129.68 125.093 123.342C125.093 117.005 119.967 111.868 113.645 111.868C107.322 111.868 102.196 117.005 102.196 123.342C102.196 129.68 107.322 134.817 113.645 134.817Z" fill="black"/>
    <path d="M117.287 116.697C117.495 118.157 115.83 119.618 113.645 119.931C111.459 120.244 109.377 119.305 109.169 117.949C108.961 116.593 110.626 115.028 112.812 114.715C114.998 114.402 116.975 115.205 117.287 116.697ZM120.514 129.424C119.218 130.961 117.402 131.964 115.414 132.24C115.206 132.031 114.894 132.031 114.477 132.031C114.206 132.049 113.949 132.159 113.749 132.344C111.532 132.392 109.342 131.852 107.4 130.78C108.212 131.6 109.189 132.237 110.265 132.651C111.342 133.065 112.494 133.244 113.645 133.179C113.942 133.406 114.312 133.517 114.685 133.492C115.102 133.388 115.414 133.283 115.518 132.97C118.224 132.344 120.41 130.957 120.514 129.392V129.424Z" fill="white"/>
  </g>
  <defs>
    <clipPath id="clip0">
      <rect width="293" height="298" fill="white" transform="translate(-132 -21)"/>
    </clipPath>
  </defs>
</svg>

<svg xmlns="http://www.w3.org/2000/svg" width="161" height="277" fill="none"><g clip-path="url(#A)"><path d="M161 234.961h-292.979v18.255H161v-18.255z" fill="#4e352e"/><path d="M-57.251 276.896c-21.856 0-21.96-64.676 0-64.676s21.96 64.676 0 64.676zm154.556-58.417c-.685-.95-1.574-1.735-2.602-2.295 1.769 7.407 3.539 25.14-3.539 25.14-.208-5.633-.104-22.01-5.1-26.705-3.122.939-8.847 3.756-11.969 11.788a56.32 56.32 0 0 0-2.082 9.806v.313c-2.186 18.36 3.122 40.475 15.924 40.475 13.322 0 18.526-24.097 15.612-42.77-.635.55-1.45.847-2.29.834.208-5.32-1.353-12.83-3.955-16.586zm42.152-6.259c-21.961 0-21.856 64.676 0 64.676s21.856-64.676 0-64.676zm-234.8 0c-21.96 0-21.856 64.676 0 64.676s21.96-64.676 0-64.676z" fill="#e45325"/><path d="M-87.33 262.501c2.432.004 4.788-.844 6.661-2.4-2.394 9.598-7.286 16.795-14.571 16.795-19.358 0-21.648-50.697-6.661-62.276-4.891 19.194-.104 47.881 14.571 47.881zm234.696 0c-14.571 0-19.463-28.792-14.571-47.881-14.987 11.579-12.698 62.276 6.661 62.276 7.285 0 12.177-7.197 14.571-16.795-1.873 1.556-4.23 2.404-6.661 2.4zM74.074 226.23c-6.141 18.986-1.561 50.698 13.738 50.698 7.285 0 12.177-7.198 14.571-16.795a11.07 11.07 0 0 1-6.661 2.399c-13.946 0-18.942-26.079-15.195-45.065-2.887 2.297-5.114 5.321-6.453 8.763zm-138.007-11.579c-14.987 11.579-12.698 62.277 6.661 62.277 7.285 0 12.177-7.198 14.571-16.795a11.07 11.07 0 0 1-6.661 2.399c-14.55-.031-19.442-28.718-14.55-47.912l-.021.031z" fill="#be3a26"/><g fill="#2d1e1c"><path d="M-5.025 230.266c-1.145-.313-14.987-34.32-14.987-34.32s9.679-6.885 10.2-8.971c-2.81-2.817-5.516-8.45-5.516-8.45a42.35 42.35 0 0 0 1.561 6.885s-4.163-1.877-5.516-5.216l-9.055 12.936s15.3 35.259 15.195 37.136c-5.724-1.252-11.032 4.799-11.032 4.799 11.136 1.147 7.494 20.341 0 18.255 5.308 12.205 11.657 5.007 12.177-15.752 2.394 1.669 10.824 13.561 1.041 15.752 9.055 16.586 18.942-4.59 5.516-16.691 6.973.522 17.797 8.972 9.471 16.691 3.018 7.928 8.951 3.755 9.887-2.191 1.374-11.057-8.93-18.359-18.942-20.863zm100.248-19.819c-2.81-4.069-6.973-4.069-11.345-1.461-9.575.313-15.508-.939-45.066 2.921 0 0-.208-2.295-.416-5.529-2.498.313-4.996.418-7.598.522l2.706 13.77c7.91-.313 31.744-5.946 43.192-5.946-4.163 4.485-10.512 16.586-4.579 21.802.937-15.856 9.887-20.634 13.946-21.907 3.997 4.841 4.892 21.177 5.1 26.705 7.077 0 5.516-17.629 3.747-25.036.901.608 1.708 1.347 2.394 2.191 2.602 3.651 3.518 11.329 3.955 16.586 8.118 0 2.998-24.41-6.036-24.618z"/></g><path d="M79.611 178.421c-24.562 12.518-55.89 12.831-39.862-18.151-1.249 1.331-2.43 2.723-3.539 4.173 2.914-10.327 11.761-19.612 19.983-25.975-4.043 2.055-7.938 4.39-11.657 6.989 13.426-18.881 26.644-13.039 32.889-40.057-4.892 17.525-24.666 29.208-42.256 33.903-16.757 9.597-62.863-1.356-77.746-6.051 10.408-.834 14.259-1.46 14.259-1.46-10.824-3.338-22.793-9.597-34.658-13.874.52 8.554 2.498 17.421 5.828 24.306-1.769-9.598 0-14.396 0-14.396s3.435 20.342 11.448 32.129c-3.122-12.622-1.769-16.899-1.769-16.899s6.453 24.306 15.924 32.651c-1.251-4.476-1.604-9.156-1.041-13.77 0 0 1.769 4.799 12.906 13.77-2.81-6.781 3.851-4.381 9.055 2.817s8.326 7.823 22.585 5.007c-10.408 5.946 6.245 10.118 16.965 8.762-7.702 4.903 16.652 3.651 30.495.313-7.285 5.633 18.005 3.234 22.169.417 1.249-.834 4.059-.834 7.181-.208 1.249-.835 2.394-1.669 3.539-2.504-7.827 3.964 5.704-21.385-12.698-11.892z" fill="#f2f2f2"/><path d="M54.216 202.623c-19.462 7.51-49.021 4.381-73.687-5.529a8.53 8.53 0 0 1-.416-1.148s9.679-6.884 10.2-8.971c-2.81-2.816-5.516-8.449-5.516-8.449a42.29 42.29 0 0 0 1.561 6.884s-4.163-1.877-5.516-5.215l-9.055 12.935c0 .028.011.054.03.074s.046.03.074.03c-9.679-4.798-18.214-10.64-24.562-17.212 1.457 3.964 2.706 7.824 3.331 9.701-4.163-5.215-20.92-22.532-27.268-47.046a107.57 107.57 0 0 0 .624 11.579 101.95 101.95 0 0 1-7.181-29.939 74.16 74.16 0 0 0-.728 9.389c-2.602-7.407-3.747-17.213-3.955-24.515v-6.885a35.52 35.52 0 0 0-1.873 4.799c-.104.417-.208.73-.312 1.148v.104a5.22 5.22 0 0 0-.208 1.252 76.59 76.59 0 0 1 .52-23.889c22.064 12.101 46.835 27.331 62.135 38.18 2.706 1.878-24.042-7.198-21.336-5.32 22.689 15.334 46.419 27.852 69.316 27.122a64.49 64.49 0 0 0 14.987-2.399c-16.757 9.597-62.863-1.356-77.746-6.051 10.408-.834 14.259-1.46 14.259-1.46-10.824-3.338-22.793-9.597-34.658-13.874.52 8.554 2.498 17.421 5.828 24.306-1.769-9.598 0-14.396 0-14.396s3.435 20.342 11.448 32.129c-3.122-12.622-1.769-16.899-1.769-16.899s6.453 24.306 15.924 32.651c-1.251-4.476-1.604-9.156-1.041-13.77 0 0 1.769 4.799 12.906 13.77-2.81-6.78 3.851-4.381 9.055 2.817s8.326 7.823 22.585 5.007c-10.408 5.946 6.245 10.118 16.965 8.762-7.702 4.903 16.652 3.651 30.495.313-7.286 5.633 18.005 3.234 22.169.418 1.249-.835 4.059-.835 7.181-.209-10.304 6.885-23.313 11.996-40.07 14.396-.208-.105 3.435-1.774 5.308-4.59zM3.01 163.713c5.204 2.19 11.969-.731 17.485-8.137-3.664 3.13-10.949 7.302-17.485 8.137zm0 16.69c3.851 1.252 8.951-.417 13.01-4.694a33.32 33.32 0 0 1-13.01 4.694zm-41.527-40.756c-1.249 5.737 1.249 12.935 6.973 18.568a53.27 53.27 0 0 1-6.973-18.568z" fill="#b3b3b3"/><path d="M154.547 135.339c12.177-38.389-1.665-102.334-121.459-98.788C-24.675 9.429-87.434 40.307-127.92 63.465c20.191 6.572 74.103 37.971 100.123 56.331 2.706 1.877-24.042-7.198-21.336-5.32 22.689 15.334 46.419 27.852 69.316 27.122 20.399-.626 54.745-15.022 58.076-40.684 10.304 1.982 14.155 22.22 13.114 23.785 1.353-1.461 2.914-16.9 10.2-20.655 0 0-3.019 8.658-2.186 10.953 3.851-12.205 33.617-14.083 28.829 16.065 1.353-1.356 3.851-10.328 3.851-10.328-3.538 22.324 5.1 31.295 13.53 32.756 3.955-.73 11.657-14.917 12.594-23.784-.97 2.025-2.194 3.919-3.643 5.633z" fill="#4e352e"/><path d="M-84.311 47.849c10.928-6.781 49.125-23.471 88.674-15.647-38.925-2.086-88.674 15.647-88.674 15.647zm117.4-11.266a83.15 83.15 0 0 0-9.055-3.755c12.191 8.008 23.193 17.701 32.68 28.791-3.331-5.842-7.285-16.273-14.363-25.14-3.018-.031-6.141-.031-9.263.073v.031z" fill="#2d1e1c"/><path d="M43.184 126.263c-44.545 6.051-63.904-6.78-62.134-8.658 19.983 10.64 56.202 8.241 62.135 8.658zm-73.895-30.251c-1.769 1.773 17.589 14.708 62.135 8.658-5.933-.417-42.047 1.982-62.134-8.658zm96.792 9.597c2.082.834 11.761-9.284-.937-31.399.416 3.025 8.222 20.968.937 31.399zm79.828-17.63c-20.608-32.025-53.6-34.842-60.99-32.755 40.153 5.425 56.41 30.179 60.969 32.755h.021z" fill="#6d4d42"/><path d="M142.578 159.123c1.978-2.191 6.869-4.068 8.847-5.007-1.145-.105-4.475.834-7.702 1.877.625-.834 1.249-1.564 1.874-2.503-8.535-1.461-17.069-10.432-13.531-32.755 0 0-2.602 8.971-3.851 10.327 4.788-30.252-24.978-28.27-28.829-16.065-.833-2.295 2.186-10.953 2.186-10.953-7.286 3.755-8.847 19.194-10.2 20.655 1.041-1.565-2.914-21.802-13.114-23.784-.212 1.48-.525 2.943-.937 4.381-6.245 27.018-19.462 21.176-32.889 40.057a97.31 97.31 0 0 1 11.657-6.989c-8.326 6.363-17.069 15.647-19.983 25.975 1.109-1.45 2.29-2.842 3.539-4.173-15.924 30.982 15.299 30.669 39.862 18.151 18.526-9.493 4.788 16.065 12.698 11.788 11.344-6.05 16.444-15.752 19.462-21.176l-3.643 7.719c7.286-5.529 9.992-15.126 15.82-16.273-1.769-4.173-2.602-7.407-1.353-8.241 1.874-1.148 7.806 4.59 10.304 5.946.624-.417.52-1.774.52-1.774 1.237 1.831 2.83 3.392 4.684 4.59.52-1.251 1.249-.521 1.353-.521a11.31 11.31 0 0 1 6.14 1.982 14.45 14.45 0 0 0-2.914-3.234z" fill="#e45325"/><path d="M123.948 115.519c-7.702-7.302-16.756-4.382-20.711.626 3.101-9.284 16.548-10.536 20.711-.626zm-17.173 52.575c-1.249 3.547-10.512 14.604-16.756 15.23 2.789 1.565 16.236-5.841 16.756-15.23zM67.642 148.17c-2.498 2.503-8.014 6.572-13.218 7.198 1.561.97 8.743-.835 13.218-7.198zm-20.503 19.194c-1.353 1.773-4.475 4.381-8.118 4.068 1.249 1.148 6.036.835 8.118-4.068zm25.187-3.651c-1.353 1.773-4.475 4.381-8.118 4.068 1.249 1.148 6.037.835 8.118-4.068zm26.852-1.356c-1.353 1.773-4.475 4.381-8.118 4.068 1.249 1.148 6.036.835 8.118-4.068zm-24.25 8.554c-1.769 3.651-17.901 13.665-25.083 11.161 2.914 3.339 23.417 0 25.083-11.13v-.031z" fill="#be3a26"/><path d="M123.116 132.939c-5.829 3.547-12.802 3.86-17.902-.313 1.041 3.339 11.241 7.511 17.902.313z" fill="#ed6d23"/><g fill="#000"><path d="M138.103 161.001a14.08 14.08 0 0 1-4.684-4.59s.104 1.356-.52 1.773c-2.498-1.356-8.43-7.093-10.304-5.946-1.249.835-.416 4.068 1.353 8.241 2.498 6.05 6.869 14.187 9.263 19.716.937 2.19 6.765 9.806 6.245-19.716-.104-.104-.854-.834-1.353.522zm-24.458-26.184c6.322 0 11.448-5.137 11.448-11.475s-5.126-11.474-11.448-11.474-11.449 5.137-11.449 11.474 5.126 11.475 11.449 11.475z"/></g><path d="M117.287 116.697c.208 1.46-1.457 2.921-3.642 3.234s-4.268-.626-4.476-1.982 1.457-2.921 3.643-3.234 4.163.49 4.475 1.982zm3.227 12.727c-1.296 1.537-3.112 2.54-5.1 2.816-.208-.209-.52-.209-.937-.209-.271.018-.528.128-.728.313-2.217.048-4.407-.492-6.349-1.564a8.15 8.15 0 0 0 2.865 1.871 8.14 8.14 0 0 0 3.38.528c.297.227.667.338 1.04.313.417-.104.729-.209.833-.522 2.706-.626 4.892-2.013 4.996-3.578v.032z" fill="#fff"/></g><defs><clipPath id="A"><path fill="#fff" transform="translate(-132 -21)" d="M0 0h293v298H0z"/></clipPath></defs></svg>
